Vector/symbolic/apps/accessories-dictionary-symbolic.svg

<svg xmlns="http://www.w3.org/2000/svg" width="16" height="16"><path d="M10.03 1.15c-.15 0-.3.01-.46.03-.57.08-1.25.35-2.02.76-1.54-.85-2.74-.9-3.74-.64-1.07.27-1.94.72-3.29.68L0 1.96V16h15V1.98l-.52.02c-1.51.05-2.27-.39-3.25-.68-.36-.11-.76-.18-1.2-.17zm-5.29.99c.62-.07 1.3.08 2.26.6v8.64c-1.1-.63-2.21-.68-3.18-.44-.66.16-1.25.34-1.82.49V2.79c.8-.14 1.47-.37 2.05-.52.24-.06.46-.11.69-.13zm5.6 0c.2.02.4.07.61.14.53.15 1.19.4 2.05.55v8.6c-.57-.15-1.16-.34-1.81-.5-.98-.24-2.09-.18-3.19.48V2.8c.7-.38 1.25-.59 1.68-.66.24-.03.45-.03.66 0zm-.54 9.61c.37-.01.75.05 1.15.15.64.16 1.32.43 2.05.63V14H2v-1.46c.72-.2 1.41-.47 2.05-.63 1.08-.27 2-.3 3.15.74l.34.3.33-.31c.7-.64 1.31-.87 1.93-.89z" fill="#555555"/><path d="M.94 14.75v-2.19l4.22-1.13 2.34.6 2.39-.67 3.74 1v2.45z" opacity=".3" fill="#555555"/></svg>

<svg xmlns="http://www.w3.org/2000/svg" width="16" height="16" version="1.1">
 <path style="fill:#444444" d="M 10.03,1.15 C 9.88,1.15 9.73,1.16 9.57,1.18 9,1.26 8.32,1.53 7.55,1.94 6.01,1.09 4.81,1.04 3.81,1.3 2.74,1.57 1.87,2.02 0.52,1.98 L 0,1.96 V 16 H 15 V 1.98 L 14.48,2 C 12.97,2.05 12.21,1.61 11.23,1.32 10.87,1.21 10.47,1.14 10.03,1.15 Z M 4.74,2.14 C 5.36,2.07 6.04,2.22 7,2.74 V 11.38 C 5.9,10.75 4.79,10.7 3.82,10.94 3.16,11.1 2.57,11.28 2,11.43 V 2.79 C 2.8,2.65 3.47,2.42 4.05,2.27 4.29,2.21 4.51,2.16 4.74,2.14 Z M 10.34,2.14 C 10.54,2.16 10.74,2.21 10.95,2.28 11.48,2.43 12.14,2.68 13,2.83 V 11.43 C 12.43,11.28 11.84,11.09 11.19,10.93 10.21,10.69 9.1,10.75 8,11.41 V 2.8 C 8.7,2.42 9.25,2.21 9.68,2.14 9.92,2.11 10.13,2.11 10.34,2.14 Z M 9.8,11.75 C 10.17,11.74 10.55,11.8 10.95,11.9 11.59,12.06 12.27,12.33 13,12.53 V 14 H 2 V 12.54 C 2.72,12.34 3.41,12.07 4.05,11.91 5.13,11.64 6.05,11.61 7.2,12.65 L 7.54,12.95 7.87,12.64 C 8.57,12 9.18,11.77 9.8,11.75 Z"/>
 <path style="opacity:.35;fill:#444444" d="M 0.94,14.75 V 12.56 L 5.16,11.43 7.5,12.03 9.89,11.36 13.63,12.36 V 14.81 Z"/>
</svg>
